file/heineken.svg

<svg clip-rule="evenodd" fill-rule="evenodd" stroke-linejoin="round" stroke-miterlimit="1.41421" viewBox="0 0 560 400" xmlns="http://www.w3.org/2000/svg"><g fill-rule="nonzero" transform="matrix(2.35116 0 0 2.35116 -821.091 -882.354)"><path d="m23.375 3.281 4.375 13.313h.125l-4.375-13.313zm19.094 15.094-.125.094-11.313 8.25 4.313 13.375.031.094.094-.063-4.281-13.375 11.312-8.281zm-20.031 14.625-11.344 8.188.094.062 11.312-8.219z" transform="translate(358.939 438.083)"/><path d="m445.99 461.402c0 1.285-.555 1.667-2.637 2.395-1.668.626-2.951.904-3.334.904-.695 0-1.006-.522-1.006-1.598 0-2.569.727-5.694 3.436-5.694 2.5 0 3.541 2.709 3.541 3.993m-27.083 11.215c0-.209-.033-.346-.137-.451-.278-.279-1.32-.452-1.841-.973-.38-.382-.625-1.041-.625-2.569v-5.868c0-.453.105-.729.556-.729h5.973c.451 0 .555.276.555.729v5.868c0 1.528-.243 2.187-.625 2.569-.521.521-1.563.694-1.84.973-.105.105-.139.242-.139.451 0 .901.139 1.806.278 1.944.138.14.347.173.798.173h9.757c.451 0 .658-.033.798-.173.139-.138.279-1.043.279-1.944 0-.209-.036-.346-.14-.451-.242-.243-1.32-.452-1.841-.973-.38-.382-.589-1.111-.589-2.292v-16.214c0-.833.209-1.39.52-1.7.556-.556 1.668-.661 1.91-.905.104-.104.14-.311.14-.485 0-.625-.14-1.563-.279-1.701-.14-.139-.277-.175-.798-.175h-9.41c-.382 0-.52.036-.624.141-.104.104-.209.832-.209 1.77 0 .172.035.381.105.45.173.175 1.041.452 1.389.8.381.382.52.799.52 1.979v4.617c0 .174-.174.416-.416.416h-6.25c-.244 0-.418-.242-.418-.416v-4.617c0-1.18.139-1.597.521-1.979.348-.348 1.215-.625 1.389-.8.07-.069.105-.278.105-.45 0-.938-.105-1.666-.209-1.77-.103-.105-.243-.141-.625-.141h-9.408c-.522 0-.66.036-.8.175-.138.138-.278 1.076-.278 1.701 0 .174.035.381.14.485.243.244 1.354.349 1.909.905.312.31.521.867.521 1.7v16.214c0 1.181-.209 1.91-.59 2.292-.521.521-1.597.73-1.84.973-.105.105-.14.242-.14.451 0 .901.14 1.806.278 1.944.14.14.278.173.8.173h9.756c.451 0 .659-.033.799-.173.138-.138.275-1.043.275-1.944m32.257-.486c1.006-1.007 1.251-1.598 1.251-2.084 0-.521-.14-.938-.556-1.354-.452-.451-.832-.521-1.181-.521-.486 0-.695.139-1.006.452-1.528 1.528-3.473 2.36-5.834 2.36-2.395 0-3.889-1.596-3.889-2.605 0-.276.244-.52.868-.693 6.667-2.084 9.445-3.472 10.486-4.514.59-.555.832-1.215.832-1.805 0-2.639-3.817-7.325-9.686-7.325-2.43 0-4.895.97-6.735 2.811s-2.986 4.444-2.986 7.986c0 3.403 1.076 5.764 2.951 7.639s4.583 2.813 7.535 2.813c3.02 0 5.868-1.077 7.95-3.16m10.868-16.91c0-.45-.244-.625-.625-.625h-6.702c-.382 0-.52 0-.626.14-.137.138-.275 1.076-.275 1.702 0 .173.069.31.138.415.243.313.763.416 1.216.799.311.312.451.972.451 1.979v9.27c0 1.181-.14 1.945-.487 2.292-.522.521-1.389.764-1.632 1.006-.068.072-.103.209-.103.453 0 .902.138 1.771.277 1.909.105.103.278.173.659.173h8.925c.381 0 .555-.07.659-.173.138-.138.242-1.007.242-1.909 0-.244-.034-.381-.104-.453-.242-.242-1.041-.485-1.562-1.006-.346-.347-.451-1.111-.451-2.292zm-3.715-8.749c-1.909 0-3.473 1.494-3.473 3.369 0 1.908 1.564 3.402 3.473 3.402 1.945 0 3.507-1.494 3.507-3.402 0-1.875-1.562-3.369-3.507-3.369m26.908 13.506c0-3.889-2.013-5.867-5.173-5.867-1.494 0-3.09.485-4.688 1.458-.555.348-.729.452-.867.452-.557 0-.174-1.425-1.182-1.425h-6.11c-.382 0-.486 0-.625.14-.173.173-.312 1.076-.312 1.702 0 .173.035.31.139.415.277.279.798.383 1.215.799.313.312.45.972.45 1.979v9.27c0 1.181-.104 1.945-.45 2.292-.487.485-1.319.764-1.563 1.006-.069.072-.105.209-.105.453 0 .902.105 1.771.245 1.909.104.103.311.173.694.173h8.75c.416 0 .554-.07.657-.173.175-.174.315-1.007.315-1.909 0-.244-.036-.381-.106-.453-.276-.276-1.075-.521-1.561-1.006-.348-.347-.52-1.111-.52-2.292v-6.839c0-2.813 1.56-3.68 2.707-3.68 1.18 0 1.84.867 1.84 2.706v9.62c0 2.569 1.633 4.269 4.584 4.269 3.263 0 4.651-2.36 4.651-2.846 0-.417-.658-1.25-1.075-1.25-.487 0-1.181.625-1.528.625-.243 0-.382-.174-.382-.729zm64.338 12.153c1.006-1.007 1.249-1.598 1.249-2.084 0-.521-.138-.938-.554-1.354-.453-.451-.836-.521-1.181-.521-.487 0-.695.139-1.008.452-1.527 1.528-3.471 2.36-5.832 2.36-2.395 0-3.889-1.596-3.889-2.605 0-.276.242-.52.867-.693 6.667-2.084 9.444-3.472 10.487-4.514.59-.555.832-1.215.832-1.805 0-2.639-3.819-7.325-9.686-7.325-2.433 0-4.896.97-6.738 2.811-1.838 1.841-2.985 4.444-2.985 7.986 0 3.403 1.077 5.764 2.952 7.639s4.583 2.813 7.533 2.813c3.022 0 5.87-1.077 7.953-3.16m-5.174-10.729c0 1.285-.555 1.667-2.639 2.395-1.666.626-2.951.904-3.335.904-.692 0-1.006-.522-1.006-1.598 0-2.569.73-5.694 3.439-5.694 2.499 0 3.541 2.709 3.541 3.993m-37.499 10.729c1.007-1.007 1.252-1.598 1.252-2.084 0-.521-.14-.938-.557-1.354-.451-.451-.832-.521-1.18-.521-.488 0-.695.139-1.007.452-1.528 1.528-3.473 2.36-5.834 2.36-2.395 0-3.889-1.596-3.889-2.605 0-.276.244-.52.869-.693 6.666-2.084 9.444-3.472 10.485-4.514.591-.555.834-1.215.834-1.805 0-2.639-3.819-7.325-9.688-7.325-2.43 0-4.895.97-6.735 2.811s-2.986 4.444-2.986 7.986c0 3.403 1.076 5.764 2.95 7.639 1.876 1.875 4.585 2.813 7.536 2.813 3.02 0 5.868-1.077 7.95-3.16m-5.172-10.729c0 1.285-.556 1.667-2.639 2.395-1.667.626-2.951.904-3.334.904-.695 0-1.006-.522-1.006-1.598 0-2.569.729-5.694 3.436-5.694 2.5 0 3.543 2.709 3.543 3.993m69.509-1.424c0-3.889-2.013-5.867-5.172-5.867-1.493 0-3.091.485-4.687 1.458-.556.348-.731.452-.868.452-.556 0-.175-1.425-1.181-1.425h-6.11c-.382 0-.487 0-.626.14-.174.173-.313 1.076-.313 1.702 0 .173.035.31.139.415.279.279.8.383 1.216.799.312.312.452.972.452 1.979v9.27c0 1.181-.105 1.945-.452 2.292-.487.485-1.32.764-1.562 1.006-.07.072-.105.209-.105.453 0 .902.105 1.771.241 1.909.106.103.315.173.696.173h8.749c.418 0 .556-.07.661-.173.174-.174.312-1.007.312-1.909 0-.244-.034-.381-.104-.453-.278-.276-1.076-.521-1.563-1.006-.347-.347-.522-1.111-.522-2.292v-6.839c0-2.813 1.564-3.68 2.71-3.68 1.181 0 1.84.867 1.84 2.706v9.62c0 2.569 1.632 4.269 4.584 4.269 3.263 0 4.652-2.36 4.652-2.846 0-.417-.66-1.25-1.076-1.25-.486 0-1.18.625-1.528.625-.243 0-.383-.174-.383-.729zm-54.512-12.881h-6.665c-.417 0-.591 0-.693.175-.14.172-.245 1.041-.245 1.631 0 .208.036.346.105.485.242.244 1.181.486 1.597.904.346.347.521 1.041.521 3.679v13.888c0 2.328-.242 3.057-.521 3.334-.486.485-1.319.764-1.562 1.006-.069.072-.104.209-.104.453 0 .902.104 1.771.242 1.909.105.103.243.173.695.173h8.715c.452 0 .589-.07.694-.173.139-.138.313-1.007.313-1.909 0-.244-.034-.381-.139-.453-.243-.242-1.076-.521-1.529-1.006-.38-.347-.52-1.111-.52-2.292v-.798c0-.451.14-.591.904-1.355.346-.311.657-.554.902-.554.348 0 .624.243 4.444 7.95.243.487.346.59.971.59h5.659c.418 0 .558-.07.661-.173.139-.138.278-1.007.278-1.909 0-.244-.034-.381-.105-.453-.243-.242-1.7-.416-2.013-1.006-5.033-8.506-5.173-8.785-5.173-9.305 0-.451 2.222-2.672 4.062-4.131 1.181-.938 1.944-.314 1.944-1.424 0-1.285-.173-1.737-.416-1.737h-8.402c-.73 0-.798.416-.798 1.98 0 .52 1.457.59 1.457 1.318 0 .625-3.541 4.029-4.131 4.029-.209 0-.244-.139-.244-.73v-13.124c0-.556-.382-.972-.904-.972" fill="#00a650"/><path d="m340.926 441.678 5.499 16.722 17.604.062-14.206 10.397 5.381 16.761-14.278-10.297-14.277 10.297 5.381-16.761-14.206-10.397 17.604-.062z" fill="#f00" transform="matrix(.838243 0 0 .838243 95.5737 71.4183)"/><path d="m571.245 446.365c.583 0 1.143.147 1.68.44.536.291.956.708 1.262 1.253.308.546.462 1.116.462 1.711 0 .593-.151 1.159-.454 1.698-.299.536-.718.956-1.257 1.258-.536.299-1.101.449-1.693.449-.593 0-1.159-.15-1.698-.449-.536-.302-.955-.722-1.258-1.258-.299-.539-.449-1.105-.449-1.698 0-.595.153-1.165.458-1.711.308-.545.731-.962 1.267-1.253.536-.293 1.096-.44 1.68-.44m.005.667c-.468 0-.917.117-1.347.351s-.769.57-1.018 1.009c-.246.438-.368.897-.368 1.377 0 .477.12.932.359 1.365.243.432.581.77 1.014 1.013.432.243.886.364 1.36.364.477 0 .93-.121 1.36-.364.432-.243.77-.581 1.013-1.013.243-.433.364-.888.364-1.365 0-.48-.124-.939-.373-1.377-.246-.439-.585-.775-1.018-1.009-.429-.234-.878-.351-1.346-.351m-1.542 4.559v-3.613h.733c.687 0 1.072.003 1.155.009.243.021.431.07.565.147.136.074.249.19.337.347.092.154.138.326.138.515 0 .261-.086.485-.258.671-.168.184-.407.298-.715.343.11.041.194.087.253.137.06.048.141.14.245.276.026.035.115.182.266.44l.427.729h-.907l-.302-.587c-.204-.394-.373-.641-.506-.742-.134-.104-.303-.156-.507-.156h-.191v1.485h-.733m.733-2.054h.298c.423 0 .685-.016.786-.048.104-.033.185-.089.245-.169.059-.083.088-.177.088-.28 0-.101-.029-.19-.088-.267-.057-.08-.138-.136-.245-.169-.106-.035-.369-.053-.786-.053h-.298z" fill="#00a650"/></g></svg>

<?xml version="1.0" encoding="UTF-8" standalone="no"?>
<!DOCTYPE svg PUBLIC "-//W3C//DTD SVG 1.1//EN" "http://www.w3.org/Graphics/SVG/1.1/DTD/svg11.dtd">
<svg width="100%" height="100%" viewBox="0 0 560 400" version="1.1" xmlns="http://www.w3.org/2000/svg" xmlns:xlink="http://www.w3.org/1999/xlink" xml:space="preserve" xmlns:serif="http://www.serif.com/" style="fill-rule:evenodd;clip-rule:evenodd;stroke-linejoin:round;stroke-miterlimit:1.41421;">
    <g transform="matrix(2.35116,0,0,2.35116,-821.091,-882.354)">
        <g id="path4051" transform="matrix(1,0,0,1,358.939,438.083)">
            <path d="M23.375,3.281L27.75,16.594L27.875,16.594L23.5,3.281L23.375,3.281ZM42.469,18.375L42.344,18.469L31.031,26.719L35.344,40.094L35.375,40.188L35.469,40.125L31.188,26.75L42.5,18.469L42.469,18.375ZM22.438,33L11.094,41.188L11.188,41.25L22.5,33.031L22.438,33Z" style="fill-rule:nonzero;"/>
        </g>
        <path id="path50" d="M445.99,461.402C445.99,462.687 445.435,463.069 443.353,463.797C441.685,464.423 440.402,464.701 440.019,464.701C439.324,464.701 439.013,464.179 439.013,463.103C439.013,460.534 439.74,457.409 442.449,457.409C444.949,457.409 445.99,460.118 445.99,461.402M418.907,472.617C418.907,472.408 418.874,472.271 418.77,472.166C418.492,471.887 417.45,471.714 416.929,471.193C416.549,470.811 416.304,470.152 416.304,468.624L416.304,462.756C416.304,462.303 416.409,462.027 416.86,462.027L422.833,462.027C423.284,462.027 423.388,462.303 423.388,462.756L423.388,468.624C423.388,470.152 423.145,470.811 422.763,471.193C422.242,471.714 421.2,471.887 420.923,472.166C420.818,472.271 420.784,472.408 420.784,472.617C420.784,473.518 420.923,474.423 421.062,474.561C421.2,474.701 421.409,474.734 421.86,474.734L431.617,474.734C432.068,474.734 432.275,474.701 432.415,474.561C432.554,474.423 432.694,473.518 432.694,472.617C432.694,472.408 432.658,472.271 432.554,472.166C432.312,471.923 431.234,471.714 430.713,471.193C430.333,470.811 430.124,470.082 430.124,468.901L430.124,452.687C430.124,451.854 430.333,451.297 430.644,450.987C431.2,450.431 432.312,450.326 432.554,450.082C432.658,449.978 432.694,449.771 432.694,449.597C432.694,448.972 432.554,448.034 432.415,447.896C432.275,447.757 432.138,447.721 431.617,447.721L422.207,447.721C421.825,447.721 421.687,447.757 421.583,447.862C421.479,447.966 421.374,448.694 421.374,449.632C421.374,449.804 421.409,450.013 421.479,450.082C421.652,450.257 422.52,450.534 422.868,450.882C423.249,451.264 423.388,451.681 423.388,452.861L423.388,457.478C423.388,457.652 423.214,457.894 422.972,457.894L416.722,457.894C416.478,457.894 416.304,457.652 416.304,457.478L416.304,452.861C416.304,451.681 416.443,451.264 416.825,450.882C417.173,450.534 418.04,450.257 418.214,450.082C418.284,450.013 418.319,449.804 418.319,449.632C418.319,448.694 418.214,447.966 418.11,447.862C418.007,447.757 417.867,447.721 417.485,447.721L408.077,447.721C407.555,447.721 407.417,447.757 407.277,447.896C407.139,448.034 406.999,448.972 406.999,449.597C406.999,449.771 407.034,449.978 407.139,450.082C407.382,450.326 408.493,450.431 409.048,450.987C409.36,451.297 409.569,451.854 409.569,452.687L409.569,468.901C409.569,470.082 409.36,470.811 408.979,471.193C408.458,471.714 407.382,471.923 407.139,472.166C407.034,472.271 406.999,472.408 406.999,472.617C406.999,473.518 407.139,474.423 407.277,474.561C407.417,474.701 407.555,474.734 408.077,474.734L417.833,474.734C418.284,474.734 418.492,474.701 418.632,474.561C418.77,474.423 418.907,473.518 418.907,472.617M451.164,472.131C452.17,471.124 452.415,470.533 452.415,470.047C452.415,469.526 452.275,469.109 451.859,468.693C451.407,468.242 451.027,468.172 450.678,468.172C450.192,468.172 449.983,468.311 449.672,468.624C448.144,470.152 446.199,470.984 443.838,470.984C441.443,470.984 439.949,469.388 439.949,468.379C439.949,468.103 440.193,467.859 440.817,467.686C447.484,465.602 450.262,464.214 451.303,463.172C451.893,462.617 452.135,461.957 452.135,461.367C452.135,458.728 448.318,454.042 442.449,454.042C440.019,454.042 437.554,455.012 435.714,456.853C433.874,458.694 432.728,461.297 432.728,464.839C432.728,468.242 433.804,470.603 435.679,472.478C437.554,474.353 440.262,475.291 443.214,475.291C446.234,475.291 449.082,474.214 451.164,472.131M462.032,455.221C462.032,454.771 461.788,454.596 461.407,454.596L454.705,454.596C454.323,454.596 454.185,454.596 454.079,454.736C453.942,454.874 453.804,455.812 453.804,456.438C453.804,456.611 453.873,456.748 453.942,456.853C454.185,457.166 454.705,457.269 455.158,457.652C455.469,457.964 455.609,458.624 455.609,459.631L455.609,468.901C455.609,470.082 455.469,470.846 455.122,471.193C454.6,471.714 453.733,471.957 453.49,472.199C453.422,472.271 453.387,472.408 453.387,472.652C453.387,473.554 453.525,474.423 453.664,474.561C453.769,474.664 453.942,474.734 454.323,474.734L463.248,474.734C463.629,474.734 463.803,474.664 463.907,474.561C464.045,474.423 464.149,473.554 464.149,472.652C464.149,472.408 464.115,472.271 464.045,472.199C463.803,471.957 463.004,471.714 462.483,471.193C462.137,470.846 462.032,470.082 462.032,468.901L462.032,455.221ZM458.317,446.472C456.408,446.472 454.844,447.966 454.844,449.841C454.844,451.749 456.408,453.243 458.317,453.243C460.262,453.243 461.824,451.749 461.824,449.841C461.824,447.966 460.262,446.472 458.317,446.472M485.225,459.978C485.225,456.089 483.212,454.111 480.052,454.111C478.558,454.111 476.962,454.596 475.364,455.569C474.809,455.917 474.635,456.021 474.497,456.021C473.94,456.021 474.323,454.596 473.315,454.596L467.205,454.596C466.823,454.596 466.719,454.596 466.58,454.736C466.407,454.909 466.268,455.812 466.268,456.438C466.268,456.611 466.303,456.748 466.407,456.853C466.684,457.132 467.205,457.236 467.622,457.652C467.935,457.964 468.072,458.624 468.072,459.631L468.072,468.901C468.072,470.082 467.968,470.846 467.622,471.193C467.135,471.678 466.303,471.957 466.059,472.199C465.99,472.271 465.954,472.408 465.954,472.652C465.954,473.554 466.059,474.423 466.199,474.561C466.303,474.664 466.51,474.734 466.893,474.734L475.643,474.734C476.059,474.734 476.197,474.664 476.3,474.561C476.475,474.387 476.615,473.554 476.615,472.652C476.615,472.408 476.579,472.271 476.509,472.199C476.233,471.923 475.434,471.678 474.948,471.193C474.6,470.846 474.428,470.082 474.428,468.901L474.428,462.062C474.428,459.249 475.988,458.382 477.135,458.382C478.315,458.382 478.975,459.249 478.975,461.088L478.975,470.708C478.975,473.277 480.608,474.977 483.559,474.977C486.822,474.977 488.21,472.617 488.21,472.131C488.21,471.714 487.552,470.881 487.135,470.881C486.648,470.881 485.954,471.506 485.607,471.506C485.364,471.506 485.225,471.332 485.225,470.777L485.225,459.978ZM549.563,472.131C550.569,471.124 550.812,470.533 550.812,470.047C550.812,469.526 550.674,469.109 550.258,468.693C549.805,468.242 549.422,468.172 549.077,468.172C548.59,468.172 548.382,468.311 548.069,468.624C546.542,470.152 544.598,470.984 542.237,470.984C539.842,470.984 538.348,469.388 538.348,468.379C538.348,468.103 538.59,467.859 539.215,467.686C545.882,465.602 548.659,464.214 549.702,463.172C550.292,462.617 550.534,461.957 550.534,461.367C550.534,458.728 546.715,454.042 540.848,454.042C538.415,454.042 535.952,455.012 534.11,456.853C532.272,458.694 531.125,461.297 531.125,464.839C531.125,468.242 532.202,470.603 534.077,472.478C535.952,474.353 538.66,475.291 541.61,475.291C544.632,475.291 547.48,474.214 549.563,472.131M544.389,461.402C544.389,462.687 543.834,463.069 541.75,463.797C540.084,464.423 538.799,464.701 538.415,464.701C537.723,464.701 537.409,464.179 537.409,463.103C537.409,460.534 538.139,457.409 540.848,457.409C543.347,457.409 544.389,460.118 544.389,461.402M506.89,472.131C507.897,471.124 508.142,470.533 508.142,470.047C508.142,469.526 508.002,469.109 507.585,468.693C507.134,468.242 506.753,468.172 506.405,468.172C505.917,468.172 505.71,468.311 505.398,468.624C503.87,470.152 501.925,470.984 499.564,470.984C497.169,470.984 495.675,469.388 495.675,468.379C495.675,468.103 495.919,467.859 496.544,467.686C503.21,465.602 505.988,464.214 507.029,463.172C507.62,462.617 507.863,461.957 507.863,461.367C507.863,458.728 504.044,454.042 498.175,454.042C495.745,454.042 493.28,455.012 491.44,456.853C489.6,458.694 488.454,461.297 488.454,464.839C488.454,468.242 489.53,470.603 491.404,472.478C493.28,474.353 495.989,475.291 498.94,475.291C501.96,475.291 504.808,474.214 506.89,472.131M501.718,461.402C501.718,462.687 501.162,463.069 499.079,463.797C497.412,464.423 496.128,464.701 495.745,464.701C495.05,464.701 494.739,464.179 494.739,463.103C494.739,460.534 495.468,457.409 498.175,457.409C500.675,457.409 501.718,460.118 501.718,461.402M571.227,459.978C571.227,456.089 569.214,454.111 566.055,454.111C564.562,454.111 562.964,454.596 561.368,455.569C560.812,455.917 560.637,456.021 560.5,456.021C559.944,456.021 560.325,454.596 559.319,454.596L553.209,454.596C552.827,454.596 552.722,454.596 552.583,454.736C552.409,454.909 552.27,455.812 552.27,456.438C552.27,456.611 552.305,456.748 552.409,456.853C552.688,457.132 553.209,457.236 553.625,457.652C553.937,457.964 554.077,458.624 554.077,459.631L554.077,468.901C554.077,470.082 553.972,470.846 553.625,471.193C553.138,471.678 552.305,471.957 552.063,472.199C551.993,472.271 551.958,472.408 551.958,472.652C551.958,473.554 552.063,474.423 552.199,474.561C552.305,474.664 552.514,474.734 552.895,474.734L561.644,474.734C562.062,474.734 562.2,474.664 562.305,474.561C562.479,474.387 562.617,473.554 562.617,472.652C562.617,472.408 562.583,472.271 562.513,472.199C562.235,471.923 561.437,471.678 560.95,471.193C560.603,470.846 560.428,470.082 560.428,468.901L560.428,462.062C560.428,459.249 561.992,458.382 563.138,458.382C564.319,458.382 564.978,459.249 564.978,461.088L564.978,470.708C564.978,473.277 566.61,474.977 569.562,474.977C572.825,474.977 574.214,472.617 574.214,472.131C574.214,471.714 573.554,470.881 573.138,470.881C572.652,470.881 571.958,471.506 571.61,471.506C571.367,471.506 571.227,471.332 571.227,470.777L571.227,459.978ZM516.715,447.097L510.05,447.097C509.633,447.097 509.459,447.097 509.357,447.272C509.217,447.444 509.112,448.313 509.112,448.903C509.112,449.111 509.148,449.249 509.217,449.388C509.459,449.632 510.398,449.874 510.814,450.292C511.16,450.639 511.335,451.333 511.335,453.971L511.335,467.859C511.335,470.187 511.093,470.916 510.814,471.193C510.328,471.678 509.495,471.957 509.252,472.199C509.183,472.271 509.148,472.408 509.148,472.652C509.148,473.554 509.252,474.423 509.39,474.561C509.495,474.664 509.633,474.734 510.085,474.734L518.8,474.734C519.252,474.734 519.389,474.664 519.494,474.561C519.633,474.423 519.807,473.554 519.807,472.652C519.807,472.408 519.773,472.271 519.668,472.199C519.425,471.957 518.592,471.678 518.139,471.193C517.759,470.846 517.619,470.082 517.619,468.901L517.619,468.103C517.619,467.652 517.759,467.512 518.523,466.748C518.869,466.437 519.18,466.194 519.425,466.194C519.773,466.194 520.049,466.437 523.869,474.144C524.112,474.631 524.215,474.734 524.84,474.734L530.499,474.734C530.917,474.734 531.057,474.664 531.16,474.561C531.299,474.423 531.438,473.554 531.438,472.652C531.438,472.408 531.404,472.271 531.333,472.199C531.09,471.957 529.633,471.783 529.32,471.193C524.287,462.687 524.147,462.408 524.147,461.888C524.147,461.437 526.369,459.216 528.209,457.757C529.39,456.819 530.153,457.443 530.153,456.333C530.153,455.048 529.98,454.596 529.737,454.596L521.335,454.596C520.605,454.596 520.537,455.012 520.537,456.576C520.537,457.096 521.994,457.166 521.994,457.894C521.994,458.519 518.453,461.923 517.863,461.923C517.654,461.923 517.619,461.784 517.619,461.193L517.619,448.069C517.619,447.513 517.237,447.097 516.715,447.097" style="fill:rgb(0,166,80);fill-rule:nonzero;"/>
        <g id="path3239" transform="matrix(0.838243,0,0,0.838243,95.5737,71.4183)">
            <path d="M340.926,441.678L346.425,458.4L364.029,458.462L349.823,468.859L355.204,485.62L340.926,475.323L326.649,485.62L332.03,468.859L317.824,458.462L335.428,458.4L340.926,441.678Z" style="fill:rgb(255,0,0);fill-rule:nonzero;"/>
        </g>
        <path id="path4083" d="M571.245,446.365C571.828,446.365 572.388,446.512 572.925,446.805C573.461,447.096 573.881,447.513 574.187,448.058C574.495,448.604 574.649,449.174 574.649,449.769C574.649,450.362 574.498,450.928 574.195,451.467C573.896,452.003 573.477,452.423 572.938,452.725C572.402,453.024 571.837,453.174 571.245,453.174C570.652,453.174 570.086,453.024 569.547,452.725C569.011,452.423 568.592,452.003 568.289,451.467C567.99,450.928 567.84,450.362 567.84,449.769C567.84,449.174 567.993,448.604 568.298,448.058C568.606,447.513 569.029,447.096 569.565,446.805C570.101,446.512 570.661,446.365 571.245,446.365M571.25,447.032C570.782,447.032 570.333,447.149 569.903,447.383C569.473,447.617 569.134,447.953 568.885,448.392C568.639,448.83 568.517,449.289 568.517,449.769C568.517,450.246 568.637,450.701 568.876,451.134C569.119,451.566 569.457,451.904 569.89,452.147C570.322,452.39 570.776,452.511 571.25,452.511C571.727,452.511 572.18,452.39 572.61,452.147C573.042,451.904 573.38,451.566 573.623,451.134C573.866,450.701 573.987,450.246 573.987,449.769C573.987,449.289 573.863,448.83 573.614,448.392C573.368,447.953 573.029,447.617 572.596,447.383C572.167,447.149 571.718,447.032 571.25,447.032M569.708,451.591L569.708,447.978L570.441,447.978C571.128,447.978 571.513,447.981 571.596,447.987C571.839,448.008 572.027,448.057 572.161,448.134C572.297,448.208 572.41,448.324 572.498,448.481C572.59,448.635 572.636,448.807 572.636,448.996C572.636,449.257 572.55,449.481 572.378,449.667C572.21,449.851 571.971,449.965 571.663,450.01C571.773,450.051 571.857,450.097 571.916,450.147C571.976,450.195 572.057,450.287 572.161,450.423C572.187,450.458 572.276,450.605 572.427,450.863L572.854,451.592L571.947,451.592L571.645,451.005C571.441,450.611 571.272,450.364 571.139,450.263C571.005,450.159 570.836,450.107 570.632,450.107L570.441,450.107L570.441,451.592L569.708,451.592M570.441,449.538L570.739,449.538C571.162,449.538 571.424,449.522 571.525,449.49C571.629,449.457 571.71,449.401 571.77,449.321C571.829,449.238 571.858,449.144 571.858,449.041C571.858,448.94 571.829,448.851 571.77,448.774C571.713,448.694 571.632,448.638 571.525,448.605C571.419,448.57 571.156,448.552 570.739,448.552L570.441,448.552L570.441,449.538" style="fill:rgb(0,166,80);fill-rule:nonzero;"/>
    </g>
</svg>
